svg/blobs-icons/no-decorations/tepee-indian-tent.svg

<svg xmlns="http://www.w3.org/2000/svg" xmlns:xlink="http://www.w3.org/1999/xlink" preserveAspectRatio="xMidYMid" width="158" height="217" viewBox="0 0 158 217"><defs><style>.cls-3{fill:#fbb713}.cls-4{fill:#020403;opacity:.25}.cls-5{fill:#142a3b}.cls-6{fill:#020403;opacity:.35}.cls-7{fill:#ff3a2f}.cls-10{fill:#fff}</style></defs><g id="group-137svg"><path d="M-.006 216.879S78.314 33.25 78.314 33.25s78.32 183.629 78.32 183.629-156.64.0-156.64.0z" id="path-1" class="cls-3" fill-rule="evenodd"/><path d="M78.314 33.25S69.447 54.039 69.447 54.039s55.727 130.656 55.727 130.656C130.893 198.107 121.054 213.002 106.473 213.002H1.647S-.006 216.879-.006 216.879s156.64.0 156.64.0S78.314 33.25 78.314 33.25z" id="path-2" class="cls-4" fill-rule="evenodd"/><path d="M47.176 216.751s31.138-73.006 31.138-73.006 31.138 73.006 31.138 73.006-62.276.0-62.276.0z" id="path-3" class="cls-5" fill-rule="evenodd"/><path d="M78.314 143.745s-7.755 18.183-7.755 18.183 23.383 54.823 23.383 54.823 15.51.0 15.51.0-31.138-73.006-31.138-73.006z" id="path-4" class="cls-6" fill-rule="evenodd"/><path d="M63.636 89.833c-4.846.0-8.444-2.72-9.857-4.414C52.501 83.885 52.708 81.606 54.241 80.329 55.765 79.059 58.021 79.254 59.306 80.758 60.215 81.79 63.604 84.761 69.201 80.283 72.101 77.639 79.914 74.023 87.482 80.329L87.83 80.66C88.465 81.306 92.1 84.519 98.007 80.404 99.644 79.263 101.897 79.667 103.038 81.305 104.178 82.942 103.776 85.195 102.137 86.337 93.221 92.543 85.657 88.778 82.705 85.76 78.172 82.122 74.318 85.391 73.891 85.779 70.142 88.78 66.647 89.833 63.636 89.833z" id="path-5" class="cls-7" fill-rule="evenodd"/><path d="M99.053 109.645C98.926 109.645 98.8 109.643 98.675 109.639 92.774 109.465 88.611 105.261 87.478 103.984 79.89 97.879 73.209 103.808 72.925 104.063 60.491 114.016 50.219 108.167 46.5 103.703 45.221 102.168 45.428 99.89 46.961 98.612 48.488 97.337 50.752 97.538 52.034 99.051 53.109 100.288 58.898 106.037 68.236 98.566 72.096 95.046 82.363 90.303 92.327 98.612L92.812 99.102C92.827 99.116 95.562 102.336 98.92 102.413 100.852 102.411 102.763 101.416 104.69 99.317 106.042 97.848 108.329 97.754 109.798 99.102 111.268 100.454 111.363 102.74 110.014 104.211 106.697 107.819 103.01 109.645 99.053 109.645z" id="path-6" class="cls-7" fill-rule="evenodd"/><path d="M78.301 40.479S58.141 5.418 58.141 5.418C57.146 3.687 57.741 1.477 59.472.481 61.203-.513 63.415.084 64.406 1.813l13.92 24.205S92.247 1.985 92.247 1.985C93.249.259 95.453-.334 97.188.67c1.726 1.001 2.315 3.213 1.315 4.939L78.301 40.479z" id="path-7" class="cls-5" fill-rule="evenodd"/><path d="M25.49 197.554C24.947 197.554 24.394 197.431 23.874 197.17 22.091 196.277 21.366 194.103 22.262 192.319l31.063-62.04C54.217 128.495 56.392 127.768 58.174 128.666 59.958 129.559 60.682 131.731 59.787 133.516l-31.063 62.04C28.09 196.823 26.815 197.554 25.49 197.554z" id="path-8" class="cls-10" fill-rule="evenodd"/></g></svg>

<svg xmlns="http://www.w3.org/2000/svg" xmlns:xlink="http://www.w3.org/1999/xlink" preserveAspectRatio="xMidYMid" width="158" height="217" viewBox="0 0 158 217">
  <defs>
    <style>

      .cls-3 {
        fill: #fbb713;
      }

      .cls-4 {
        fill: #020403;
        opacity: 0.25;
      }

      .cls-5 {
        fill: #142a3b;
      }

      .cls-6 {
        fill: #020403;
        opacity: 0.35;
      }

      .cls-7 {
        fill: #ff3a2f;
      }

      .cls-10 {
        fill: #ffffff;
      }
    </style>
  </defs>
  <g id="group-137svg">
    <path d="M-0.006,216.879 C-0.006,216.879 78.314,33.250 78.314,33.250 C78.314,33.250 156.634,216.879 156.634,216.879 C156.634,216.879 -0.006,216.879 -0.006,216.879 Z" id="path-1" class="cls-3" fill-rule="evenodd"/>
    <path d="M78.314,33.250 C78.314,33.250 69.447,54.039 69.447,54.039 C69.447,54.039 125.174,184.695 125.174,184.695 C130.893,198.107 121.054,213.002 106.473,213.002 C106.473,213.002 1.647,213.002 1.647,213.002 C1.647,213.002 -0.006,216.879 -0.006,216.879 C-0.006,216.879 156.634,216.879 156.634,216.879 C156.634,216.879 78.314,33.250 78.314,33.250 Z" id="path-2" class="cls-4" fill-rule="evenodd"/>
    <path d="M47.176,216.751 C47.176,216.751 78.314,143.745 78.314,143.745 C78.314,143.745 109.452,216.751 109.452,216.751 C109.452,216.751 47.176,216.751 47.176,216.751 Z" id="path-3" class="cls-5" fill-rule="evenodd"/>
    <path d="M78.314,143.745 C78.314,143.745 70.559,161.928 70.559,161.928 C70.559,161.928 93.942,216.751 93.942,216.751 C93.942,216.751 109.452,216.751 109.452,216.751 C109.452,216.751 78.314,143.745 78.314,143.745 Z" id="path-4" class="cls-6" fill-rule="evenodd"/>
    <path d="M63.636,89.833 C58.790,89.833 55.192,87.113 53.779,85.419 C52.501,83.885 52.708,81.606 54.241,80.329 C55.765,79.059 58.021,79.254 59.306,80.758 C60.215,81.790 63.604,84.761 69.201,80.283 C72.101,77.639 79.914,74.023 87.482,80.329 C87.482,80.329 87.830,80.660 87.830,80.660 C88.465,81.306 92.100,84.519 98.007,80.404 C99.644,79.263 101.897,79.667 103.038,81.305 C104.178,82.942 103.776,85.195 102.137,86.337 C93.221,92.543 85.657,88.778 82.705,85.760 C78.172,82.122 74.318,85.391 73.891,85.779 C70.142,88.780 66.647,89.833 63.636,89.833 Z" id="path-5" class="cls-7" fill-rule="evenodd"/>
    <path d="M99.053,109.645 C98.926,109.645 98.800,109.643 98.675,109.639 C92.774,109.465 88.611,105.261 87.478,103.984 C79.890,97.879 73.209,103.808 72.925,104.063 C60.491,114.016 50.219,108.167 46.500,103.703 C45.221,102.168 45.428,99.890 46.961,98.612 C48.488,97.337 50.752,97.538 52.034,99.051 C53.109,100.288 58.898,106.037 68.236,98.566 C72.096,95.046 82.363,90.303 92.327,98.612 C92.327,98.612 92.812,99.102 92.812,99.102 C92.827,99.116 95.562,102.336 98.920,102.413 C100.852,102.411 102.763,101.416 104.690,99.317 C106.042,97.848 108.329,97.754 109.798,99.102 C111.268,100.454 111.363,102.740 110.014,104.211 C106.697,107.819 103.010,109.645 99.053,109.645 Z" id="path-6" class="cls-7" fill-rule="evenodd"/>
    <path d="M78.301,40.479 C78.301,40.479 58.141,5.418 58.141,5.418 C57.146,3.687 57.741,1.477 59.472,0.481 C61.203,-0.513 63.415,0.084 64.406,1.813 C64.406,1.813 78.326,26.018 78.326,26.018 C78.326,26.018 92.247,1.985 92.247,1.985 C93.249,0.259 95.453,-0.334 97.188,0.670 C98.914,1.671 99.503,3.883 98.503,5.609 C98.503,5.609 78.301,40.479 78.301,40.479 Z" id="path-7" class="cls-5" fill-rule="evenodd"/>
    <path d="M25.490,197.554 C24.947,197.554 24.394,197.431 23.874,197.170 C22.091,196.277 21.366,194.103 22.262,192.319 C22.262,192.319 53.325,130.279 53.325,130.279 C54.217,128.495 56.392,127.768 58.174,128.666 C59.958,129.559 60.682,131.731 59.787,133.516 C59.787,133.516 28.724,195.556 28.724,195.556 C28.090,196.823 26.815,197.554 25.490,197.554 Z" id="path-8" class="cls-10" fill-rule="evenodd"/>
  </g>
</svg>
